usr/share/icons/biglinux-icons-material-dark/16/actions/object-group.svg

<svg xmlns="http://www.w3.org/2000/svg" viewBox="0 0 16 16">
  <defs id="defs3051">
    <style type="text/css" id="current-color-scheme">
      .ColorScheme-Text {
        color:#dedede;
      }
      </style>
  </defs>
 <path style="fill:currentColor;fill-opacity:1;stroke:none" 
     d="M 2 2 L 2 14 L 14 14 L 14 2 L 3 2 L 2 2 z M 3 3 L 13 3 L 13 13 L 3 13 L 3 5 L 3 3 z M 6 4 C 4.895 4 4 4.895 4 6 C 4 7.105 4.895 8 6 8 C 7.105 8 8 7.105 8 6 C 8 4.895 7.105 4 6 4 z M 9 4 L 9 8 L 12 8 L 12 4 L 9 4 z M 5 9 L 5 12 L 7 12 L 7 9 L 5 9 z M 10.5 9 L 9 12 L 12 12 L 10.5 9 z "
     class="ColorScheme-Text"
     />
</svg>

<svg xmlns="http://www.w3.org/2000/svg" viewBox="0 0 16 16">
<defs id="defs3051">
<style id="current-color-scheme" type="text/css">
.ColorScheme-Text{color:#dedede}
</style>
</defs>
<path d="M2 2v12h12V2zm1 1h10v10H3zm3 1a2 2 0 1 0-.001 3.999A2 2 0 0 0 6 4m3 0v4h3V4zM5 9v3h2V9zm5.5 0L9 12h3z" class="ColorScheme-Text" style="fill:currentColor;fill-opacity:1;stroke:none"/>
</svg>
